X:1
T:Come unto Me
T:F. Degen, arr. by Philip Paul Bliss (1838-1876)
T:Come unto Me
T:Public Domain
T:Public Domain
C:F. Degen, arr. by Philip Paul Bliss (1838-1876)
Z:Public Domain
%%score ( 1 2 ) ( 3 4 )
L:1/8
M:4/4
K:F
V:1 treble 
V:2 treble 
V:3 bass 
V:4 bass 
V:1
 [FA]2 [F^G][FA] [Fd]2 [Fc]2 | [CF]2 [CE][CF] [FA]2 [EG]2 | [EB]2 [EA][EB] [Be]2 [Bd]2 | %3
w: 1.~Come un- to Je- sus,|all ye that la- bor,|All that are wea- ry,|
w: 2.~Bring Him the bur- den,|heav- i- ly press- ing,|Tell Him the sor- rows|
w: 3.~Lose not a mo- ment,|haste to your Sav- ior,|Ere the bright day- beams|
w: 4.~Come un- to Je- sus,|Sav- ior and Bro- ther,|Sure- ly you need Him,|
 [Ac]2 [EG][E^G] [FA]4 | [FA]2 [F^G][FA] [Fd]2 [Fc]2 | [CF]2 [CG][FA] [Dc]2 [DB]2 | %6
w: sad and op- pressed;|Still He is call- ing,|oh, friend and neigh- bor,|
w: hid in your breast;|Sin and trans- gress- ion,|free- ly con- fess- ing,|
w: fade in the west;|Ask- ing His mer- cy,|seek- ing His fa- vor,|
w: pur- est and best;|Tru- er than fa- ther,|fond- er than mo- ther,|
 [CF]2 [CE][CD] C[CF][FA][FB] | [FA]2 [EG]2 [CF]4 ||"^Refrain" [Fc]2 [F=B][Fc] [Fd]2 [Fc]2 | %9
w: “Come un- to Me, and I will|you rest.” *||
w: Come un- to Him, and He will|you rest. *||
w: Come un- to Him, and He will|you rest. *||
w: Come un- to Him, and He will|you rest. *||
 [FA]2 [F^G][FA] [FB]2 [FA]2 | [EG]2 [^D^F][EG] [EA]2 [EG]2 | [F=B]2 [FA][FB] [Ec]4 | %12
w: |||
w: |||
w: |||
w: |||
 [Fc]2 [F=B][Fc] [Fd]2 [Fc]2 | [Af]2 [Ac][FA] [Be]2 [Bd]2 | [CF]2 [CE][CD] C[CF][FA][FB] | %15
w: |||
w: |||
w: |||
w: |||
 [FA]2 [EG]2 [CF]4 |] %16
w: |
w: |
w: |
w: |
V:2
 x8 | x8 | x8 | x8 | x8 | x8 | x4 C x3 | x8 || x8 | x8 | x8 | x8 | x8 | x8 | x4 C x3 | x8 |] %16
w: ||||||give||||||||||
w: ||||||give||||||||||
w: ||||||give||||||||||
w: ||||||give||||||||||
V:3
 [F,C]2 [F,=B,][F,C] [F,_B,]2 [F,A,]2 | [F,A,]2 [G,B,][F,A,] [F,C]2 [B,C]2 | %2
w: ~ ~ ~ ~ ~|~ ~ ~ ~ ~|
 [G,C]2 [G,C][G,C] [C,C]2 [C,C]2 | [C,C]2 [C,C][C,C] [F,C]4 | %4
w: ~ ~ ~ ~ ~|~ ~ ~ ~|
 [F,C]2 [F,=B,][F,C] [F,_B,]2 [F,A,]2 | [F,A,]2 [F,B,][F,C] [G,,B,]2 [B,,G,]2 | %6
w: ~ ~ ~ ~ ~|~ ~ ~ ~ ~|
 [C,A,]2 [C,B,][C,B,] [F,A,][F,A,][F,C][B,,D] | [C,C]2 [C,B,]2 [F,A,]4 || %8
w: ~ ~ ~ ~ ~ ~ ~|~ ~ ~|
 [F,A,]2 [F,^G,][F,A,] [F,B,]2 [F,A,]2 | [F,C]2 [F,=B,][F,C] [F,D]2 [F,C]2 | %10
w: Down thro’ the ag- es,|sweet- ly ’tis ring- ing,|
 [B,C]2 [A,C][B,C] [B,C]2 [B,C]2 | [G,D]2 [G,=B,][G,D] C2 _B,2 | %12
w: This word of Je- sus,|come and be blest ;|
 [F,A,]2 [F,^G,][F,A,] [F,B,]2 [F,A,]2 | [F,C]2 [F,C][F,C] [G,,C]2 [B,,B,]2 | %14
w: er than car- ols, an-|gels are sing- ing, “Come|
 [C,A,]2 [C,B,][C,B,] [F,A,][F,A,][F,C][B,,D] | [C,C]2 [C,B,]2 [F,,F,A,]4 |] %16
w: un- to Me, and I will give|you rest.” *|
V:4
 x8 | x8 | x8 | x8 | x8 | x8 | x8 | x8 || x8 | x8 | x8 | x4 C,4 | x8 | x8 | x8 | x8 |] %16
w: |||||||||||Sweet-|||||

